!!!COM:	Stravinsky
!!!OTL:	374_Str-7/57/3-1[65]1-4
**kern	**kern	**dynam	**kern	**dynam	**kern	**dynam	**kern	**kern	**dynam	**kern	**dynam	**kern	**dynam	**kern	**dynam	**kern	**kern	**dynam	**kern	**dynam	**kern	**dynam	**kern	**dynam	**kern	**dynam	**kern	**dynam	**kern	**dynam	**kern	**dynam	**kern	**dynam
*part19	*part18	*part18	*part17	*part17	*part16	*part16	*part15	*part14	*part14	*part13	*part13	*part12	*part12	*part11	*part11	*part10	*part9	*part9	*part8	*part8	*part7	*part7	*part6	*part6	*part5	*part5	*part4	*part4	*part3	*part3	*part2	*part2	*part1	*part1
*staff19	*staff18	*	*staff17	*	*staff16	*	*staff15	*staff14	*	*staff13	*	*staff12	*	*staff11	*	*staff10	*staff9	*	*staff8	*	*staff7	*	*staff6	*	*staff5	*	*staff4	*	*staff3	*	*staff2	*	*staff1	*
*I"Violoncello	*I"Viola	*	*I"Violin II	*	*I"Violin I	*	*I"Bass Drum	*I"Tuba	*	*I"Euphonium	*	*I"Horn in F	*	*I"Horn in F	*	*I"Clarinet in Bb	*I"Clarinet in D	*	*I"English Horn	*	*I"Oboe	*	*I"Oboe	*	*I"G Flute	*	*I"Flute	*	*I"Flute	*	*I"Piccolo	*	*I"Piccolo	*
*I'Vc.	*I'Vla.	*	*I'Vln. II	*	*I'Vln. I	*	*I'B. D.	*I'Tba.	*	*I'Euph.	*	*I'Hn.	*	*I'Hn.	*	*I'Cl.	*I'D Cl.	*	*I'Eng. Hn.	*	*I'Ob.	*	*I'Ob.	*	*I'G Fl.	*	*I'Fl.	*	*I'Fl.	*	*I'Picc.	*	*I'Picc.	*
*clefC4	*clefC3	*	*clefG2	*	*clefG2	*	*clefpercussion0	*clefF4	*	*clefG2	*	*clefG2	*	*clefG2	*	*clefG2	*clefG2	*	*clefG2	*	*clefG2	*	*clefG2	*	*clefG2	*	*clefG2	*	*clefG2	*	*clefG2	*	*clefG2	*
*k[]	*k[]	*	*k[]	*	*k[]	*	*	*k[]	*	*k[]	*	*k[]	*	*k[]	*	*k[]	*k[]	*	*k[]	*	*k[]	*	*k[]	*	*k[]	*	*k[]	*	*k[]	*	*k[]	*	*k[]	*
*C:	*C:	*	*C:	*	*C:	*	*	*C:	*	*C:	*	*C:	*	*C:	*	*C:	*C:	*	*C:	*	*C:	*	*C:	*	*C:	*	*C:	*	*C:	*	*C:	*	*C:	*
*M4/4	*M4/4	*	*M4/4	*	*M4/4	*	*M4/4	*M4/4	*	*M4/4	*	*M4/4	*	*M4/4	*	*M4/4	*M4/4	*	*M4/4	*	*M4/4	*	*M4/4	*	*M4/4	*	*M4/4	*	*M4/4	*	*M4/4	*	*M4/4	*
=1	=	=	=	=	=	=	=	=	=	=	=	=	=	=	=	=	=	=	=	=	=	=	=	=	=	=	=	=	=	=	=	=	=	=
*	*	*	*^	*	*	*	*	*	*	*	*	*	*	*	*	*	*	*	*	*	*	*	*	*	*	*	*	*	*	*	*	*	*	*
4.g	4.ee	.	4.ee 4.gg	8g	.	4.gg	.	4x	(2.G#X	>	(2.A-X	>	1r	.	1r	.	(4.ee 4.gg	1r	.	[1aT	f	2r	.	[1aaT	f	1r	.	1r	.	1r	.	1r	.	1r	.
.	.	.	.	8r	.	.	.	.	.	.	.	.	.	.	.	.	.	.	.	.	.	.	.	.	.	.	.	.	.	.	.	.	.	.	.
.	.	.	.	4r	.	.	.	4r	.	.	.	.	.	.	.	.	.	.	.	.	.	.	.	.	.	.	.	.	.	.	.	.	.	.	.
8f	8dd	.	8r	.	.	8ff	.	.	.	.	.	.	.	.	.	.	8dd 8ff	.	.	.	.	.	.	.	.	.	.	.	.	.	.	.	.	.	.
8eL	8ccL	.	2r	2r	.	8eeL	.	4r	.	.	.	.	.	.	.	.	8ccL 8ee	.	.	.	.	4r	.	.	.	.	.	.	.	.	.	.	.	.	.
8dJ	8b-XJ	.	.	.	.	8ddJ	.	.	.	.	.	.	.	.	.	.	8b-XJ 8dd	.	.	.	.	.	.	.	.	.	.	.	.	.	.	.	.	.	.
8eL	8ccL	.	.	.	.	8eeL	.	4x	8Gn)	]	8G)	]	.	.	.	.	8ccL 8ee	.	.	.	.	(8eL 8cc	f	.	.	.	.	.	.	.	.	.	.	.	.
8fJ	8ddJ	.	.	.	.	8ffJ	.	.	8r	.	8r	.	.	.	.	.	8ddJ) 8ff	.	.	.	.	8fJ 8dd	.	.	.	.	.	.	.	.	.	.	.	.	.
=2	=2	=2	=2	=2	=2	=2	=2	=2	=2	=2	=2	=2	=2	=2	=2	=2	=2	=2	=2	=2	=2	=2	=2	=2	=2	=2	=2	=2	=2	=2	=2	=2	=2	=2	=2
4.g	4.ee	.	4.ee 4.gg	8g	.	4.gg	.	2r	(2.G#X	>	(2.A-X	>	1r	.	1r	.	(4.ee 4.gg	(4.gg	f	1a_	.	4.g 4.ee	.	1aa_	.	1r	.	1r	.	1r	.	1r	.	1r	.
.	.	.	.	8r	.	.	.	.	.	.	.	.	.	.	.	.	.	.	.	.	.	.	.	.	.	.	.	.	.	.	.	.	.	.	.
.	.	.	.	4r	.	.	.	.	.	.	.	.	.	.	.	.	.	.	.	.	.	.	.	.	.	.	.	.	.	.	.	.	.	.	.
8f	8dd	.	8r	.	.	8ff	.	.	.	.	.	.	.	.	.	.	8dd 8ff	8ff	.	.	.	8f 8dd	.	.	.	.	.	.	.	.	.	.	.	.	.
8eL	8ccL	.	2r	2r	.	8eeL	.	4x	.	.	.	.	.	.	.	.	8ccL 8ee	8eeL	.	.	.	8eL 8cc	.	.	.	.	.	.	.	.	.	.	.	.	.
8dJ	8b-XJ	.	.	.	.	8ddJ	.	.	.	.	.	.	.	.	.	.	8b-XJ 8dd	8ddJ	.	.	.	8dJ 8b-X	.	.	.	.	.	.	.	.	.	.	.	.	.
8eL	8ccL	.	.	.	.	8eeL	.	4r	8F#X)	]	8G-X)	]	.	.	.	.	8ccL 8ee	8eeL	.	.	.	8eL 8cc	.	.	.	.	.	.	.	.	.	.	.	.	.
8fJ	8ddJ	.	.	.	.	8ffJ	.	.	8r	.	8r	.	.	.	.	.	8ddJ 8ff	8ffJ	.	.	.	8fJ 8dd	.	.	.	.	.	.	.	.	.	.	.	.	.
*	*	*	*v	*v	*	*	*	*	*	*	*	*	*	*	*	*	*	*	*	*	*	*	*	*	*	*	*	*	*	*	*	*	*	*	*
=3	=3	=3	=3	=3	=3	=3	=3	=3	=3	=3	=3	=3	=3	=3	=3	=3	=3	=3	=3	=3	=3	=3	=3	=3	=3	=3	=3	=3	=3	=3	=3	=3	=3	=3
*	*	*	*	*	*	*	*	*	*	*	*	*	*	*	*	*	*	*	*	*	*	*	*^	*	*	*	*	*	*	*	*	*	*	*
4g	4ee	.	2r	.	4gg	.	4r	(4G#X~	.	(4A-X~	.	2r	.	1r	.	4ee 4gg	4gg	.	1a]	.	4g 4ee	.	1aa_	2r	.	1r	.	2r	.	2r	.	2r	.	2r	.
8fL	8ddL	.	.	.	8ffL	.	4x	4A#X~	.	4B-X~	.	.	.	.	.	8ddL 8ff	8ffL	.	.	.	8fL 8dd	.	.	.	.	.	.	.	.	.	.	.	.	.	.
8eJ	8ccJ	.	.	.	8eeJ	.	.	.	.	.	.	.	.	.	.	8ccJ 8ee	8eeJ	.	.	.	8eJ 8cc	.	.	.	.	.	.	.	.	.	.	.	.	.	.
4d	4b-X	.	4r	.	4dd	.	2r	4c#X~	.	4d-X~	.	4r	.	.	.	4b-X) 4dd	4dd)	.	.	.	4d) 4b-X	.	.	4r	.	.	.	4r	.	4r	.	4r	.	4r	.
*	*	*	*	*	*	*	*	*	*	*	*	*	*	*	*	*	*	*	*	*	*	*	*v	*v	*	*	*	*	*	*	*	*	*	*	*
*	*	*	*	*	*	*	*	*	*	*	*	*	*	*	*	*	*	*	*	*	*	*	*	*	*	*	*8va	*	*	*	*	*	*	*
*	*	*	*	*	*	*	*	*	*	*	*	*	*	*	*	*	*	*	*	*	*	*	*^	*	*	*	*	*	*	*	*	*	*	*
8eL	8ccL	.	24r	.	8eeL	.	.	4A#~)	.	4B-~)	.	(8e~L	mf	.	.	(8ccL 8ee	(8eeL	.	.	.	(8eL 8cc	.	.	24r	.	.	.	(8cccL	f	24r	.	24r	.	(8eeeL	f
*	*	*	*	*	*	*	*	*	*	*	*	*	*	*	*	*	*	*	*	*	*	*	*v	*v	*	*	*	*	*	*	*	*	*	*	*
*	*	*	*	*	*	*	*	*	*	*	*	*	*	*	*	*	*	*	*	*	*	*	*	*	*	*	*	*	*8va	*	*	*	*	*
*	*	*	*	*	*	*	*	*	*	*	*	*	*	*	*	*	*	*	*	*	*	*	*^	*	*	*	*	*	*	*	*	*	*	*
.	.	.	(24aLL	f	.	.	.	.	.	.	.	.	.	.	.	.	.	.	.	.	.	.	.	24aLL	f	.	.	.	.	(24aaLL	f	(24aaLL	f	.	.
.	.	.	24b	.	.	.	.	.	.	.	.	.	.	.	.	.	.	.	.	.	.	.	.	24b	.	.	.	.	.	24bb	.	24bb	.	.	.
8fJ	8ddJ	.	24cc	.	8ffJ	.	.	.	.	.	.	8fJ	.	.	.	8ddJ 8ff	8ffJ	.	.	.	8fJ 8dd	.	.	24cc	.	.	.	8dddJ	.	24ccc	.	24ccc	.	8fffJ	.
.	.	.	48ddL	.	.	.	.	.	.	.	.	.	.	.	.	.	.	.	.	.	.	.	.	48ddL	.	.	.	.	.	48dddL	.	48dddL	.	.	.
.	.	.	48ee	.	.	.	.	.	.	.	.	.	.	.	.	.	.	.	.	.	.	.	.	48ee	.	.	.	.	.	48eee	.	48eee	.	.	.
.	.	.	48ff	.	.	.	.	.	.	.	.	.	.	.	.	.	.	.	.	.	.	.	.	48ff	.	.	.	.	.	48fff	.	48fff	.	.	.
.	.	.	48ggJJJ)	.	.	.	.	.	.	.	.	.	.	.	.	.	.	.	.	.	.	.	.	48ggJJJ	.	.	.	.	.	48gggJJJ	.	48gggJJJ	.	.	.
=4	=4	=4	=4	=4	=4	=4	=4	=4	=4	=4	=4	=4	=4	=4	=4	=4	=4	=4	=4	=4	=4	=4	=4	=4	=4	=4	=4	=4	=4	=4	=4	=4	=4	=4	=4
8g	4.g 4.a	ff	4.gg	ff	4.ee 4.aa	ff	4x	(2.G#X	>	(2.A-X	>	4.g	.	1r	.	4.ee 4.gg	4.gg	.	[1aT	.	4.g 4.ee	.	1aa_	[1aaT	.	[1aaT	f	4.eee)	.	8aaa)	.	[1aaaT)	.	[4ggg	.
8r	.	.	.	.	.	.	.	.	.	.	.	.	.	.	.	.	.	.	.	.	.	.	.	.	.	.	.	.	.	8r	.	.	.	.	.
4r	.	.	.	.	.	.	4r	.	.	.	.	.	.	.	.	.	.	.	.	.	.	.	.	.	.	.	.	.	.	4r	.	.	.	8gggL]	.
.	8f 8a	.	8ff	.	8dd 8aa	.	.	.	.	.	.	8f	.	.	.	8dd 8ff	8ff	.	.	.	8f 8dd	.	.	.	.	.	.	8ddd	.	.	.	.	.	8fffJ	.
2r	8eL 8a	.	8eeL	.	8ccL 8aa	.	4r	.	.	.	.	8eL	.	.	.	8ccL 8ee	8eeL	.	.	.	8eL 8cc	.	.	.	.	.	.	(8cccL	.	(8eeeL	.	.	.	8eee)	.
.	8dJ 8a	.	8ddJ	.	8b-XJ 8aa	.	.	.	.	.	.	8dJ	.	.	.	8b-XJ 8dd	8ddJ	.	.	.	8dJ 8b-X	.	.	.	.	.	.	8bb-X	.	8ddd	.	.	.	8r	.
.	8eL 8a	.	8eeL	.	8ccL 8aa	.	4x	8Gn)	]	8G)	]	8eL	.	.	.	8ccL 8ee	8eeL	.	.	.	8eL 8cc	.	.	.	.	.	.	8ccc	.	8eee	.	.	.	4r	.
.	8fJ 8a	.	8ffJ	.	8ddJ 8aa	.	.	8r	.	8r	.	8fJ	.	.	.	8ddJ 8ff	8ffJ	.	.	.	8fJ 8dd	.	.	.	.	.	.	8dddJ	.	8fffJ	.	.	.	.	.
=5	=5	=5	=5	=5	=5	=5	=5	=5	=5	=5	=5	=5	=5	=5	=5	=5	=5	=5	=5	=5	=5	=5	=5	=5	=5	=5	=5	=5	=5	=5	=5	=5	=5	=5	=5
1r	4g 4a	.	4gg	.	4ee 4aa	.	2r	(2.G#X	>	(2.A-X	>	4g	.	1r	.	4ee 4gg	4gg	.	1a_	.	4g 4ee	.	[1aa	[1aa	.	1aa_	.	4eee	.	4ggg	.	1aaa_	.	1r	.
.	8fL 8a	.	8ffL	.	8ddL 8aa	.	.	.	.	.	.	8fL	.	.	.	8ddL 8ff	8ffL	.	.	.	8fL 8dd	.	.	.	.	.	.	8dddL	.	8fffL	.	.	.	.	.
.	8eJ 8a	.	8eeJ	.	8ccJ 8aa	.	.	.	.	.	.	8eJ	.	.	.	8ccJ 8ee	8eeJ	.	.	.	8eJ 8cc	.	.	.	.	.	.	8cccJ	.	8eeeJ	.	.	.	.	.
.	4d 4a	.	4dd	.	4b-X 4aa	.	4x	.	.	.	.	4d)	.	.	.	4b-X) 4dd	4dd)	.	.	.	4d) 4b-X	.	.	.	.	.	.	4bb-X)	.	4ddd)	.	.	.	.	.
.	8eL 8a	.	8eeL	.	8ccL 8aa	.	4r	8F#X)	]	8G-X)	]	(8eL	.	.	.	(8ccL 8ee	(8eeL	.	.	.	(8eL 8cc	.	.	.	.	.	.	(8cccL	.	(8eeeL	.	.	.	.	.
.	8fJ 8a	.	8ffJ	.	8ddJ 8aa	.	.	8r	.	8r	.	8fJ	.	.	.	8ddJ 8ff	8ffJ	.	.	.	8fJ 8dd	.	.	.	.	.	.	8dddJ	.	8fffJ	.	.	.	.	.
=6	=6	=6	=6	=6	=6	=6	=6	=6	=6	=6	=6	=6	=6	=6	=6	=6	=6	=6	=6	=6	=6	=6	=6	=6	=6	=6	=6	=6	=6	=6	=6	=6	=6	=6	=6
1r	4g 4a	.	4gg	.	4ee 4aa	.	4r	(2.G#X	>	(2.A-X	>	4g	.	[1d~ [1dd	ff	4ee 4gg	4gg	.	1a_	.	4g 4ee	.	[1aa	[1aa	.	1aa_	.	4eee	.	4ggg	.	1aaa_	.	2r	.
.	8fL 8a	.	8ffL	.	8ddL 8aa	.	4x	.	.	.	.	8fL	.	.	.	8ddL 8ff	8ffL	.	.	.	8fL 8dd	.	.	.	.	.	.	8dddL	.	8fffL	.	.	.	.	.
.	8eJ 8a	.	8eeJ	.	8ccJ 8aa	.	.	.	.	.	.	8eJ	.	.	.	8ccJ 8ee	8eeJ	.	.	.	8eJ 8cc	.	.	.	.	.	.	8cccJ	.	8eeeJ	.	.	.	.	.
.	4d 4a	.	4dd	.	4b-X 4aa	.	2r	.	.	.	.	4d)	.	.	.	4b-X) 4dd	4dd)	.	.	.	4d 4b-X	.	.	.	.	.	.	4bb-X)	.	4ddd)	.	.	.	4r	.
.	8eL 8a	.	8eeL	.	8ccL 8aa	.	.	8F#X)	]	8G-X)	]	(8eL	.	.	.	(8ccL 8ee	(8eeL	.	.	.	8eL 8cc	.	.	.	.	.	.	(8cccL	.	(8eeeL	.	.	.	(8eeeL	.
.	8fJ 8a	.	8ffJ	.	8ddJ 8aa	.	.	8r	.	8r	.	8fJ	.	.	.	8ddJ 8ff	8ffJ	.	.	.	8fJ 8dd	.	.	.	.	.	.	8dddJ	.	8fffJ	.	.	.	8fffJ	.
*	*	*	*	*	*	*	*	*	*	*	*	*	*	*	*	*	*	*	*	*	*	*	*v	*v	*	*	*	*	*	*	*	*	*	*	*
=7	=7	=7	=7	=7	=7	=7	=7	=7	=7	=7	=7	=7	=7	=7	=7	=7	=7	=7	=7	=7	=7	=7	=7	=7	=7	=7	=7	=7	=7	=7	=7	=7	=7	=7
*	*	*	*	*	*	*	*	*	*	*	*	*	*	*	*	*	*	*	*	*	*	*	*	*	*	*	*X8va	*	*X8va	*	*	*	*	*
*	*	*	*	*	*	*	*	*	*	*	*	*	*	*	*	*	*	*	*	*	*	*	*^	*	*	*	*	*	*	*	*	*	*	*
1r	4.g 4.a	.	4.gg	.	4.ee 4.aa	.	4x	(4G#X~	.	(4A-X~	.	4.g	.	4d] 4dd]	.	4.ee 4.gg	4.gg	.	1a]	.	4.g 4.ee	.	[1aa	[1aa	.	1aa]	.	4.ee	.	4.gg	.	1aaa]	.	[4ggg	.
.	.	.	.	.	.	.	4r	4A#X~	.	4B-X~	.	.	.	4r	.	.	.	.	.	.	.	.	.	.	.	.	.	.	.	.	.	.	.	8gggL]	.
.	8f 8a	.	8ff	.	8dd 8aa	.	.	.	.	.	.	8f	.	.	.	8dd 8ff	8ff	.	.	.	8f 8dd	.	.	.	.	.	.	8dd	.	8ff	.	.	.	8fffJ	.
.	8eL 8a	.	8eeL	.	8ccL 8aa	.	4r	4c#X~	.	4d-X~	.	8eL	.	[2d~ [2dd	.	8ccL 8ee	8eeL	.	.	.	8eL 8cc	.	.	.	.	.	.	8ccL	.	8eeL	.	.	.	8eee)	.
.	8dJ 8a	.	8ddJ	.	8b-XJ 8aa	.	.	.	.	.	.	8dJ	.	.	.	8b-XJ 8dd	8ddJ	.	.	.	8dJ 8b-X	.	.	.	.	.	.	8b-X	.	8dd	.	.	.	8r	.
.	8eL 8a	.	8eeL	.	8ccL 8aa	.	4x	4A#~)	.	4B-~)	.	8eL	.	.	.	8ccL 8ee	8eeL	.	.	.	8eL 8cc	.	.	.	.	.	.	8cc	.	8ee	.	.	.	4r	.
.	8fJ 8a	.	8ffJ	.	8ddJ 8aa	.	.	.	.	.	.	8fJ)	.	.	.	8ddJ) 8ff	8ffJ)	.	.	.	8fJ) 8dd	.	.	.	.	.	.	8ddJ)	.	8ffJ)	.	.	.	.	.
*	*	*	*	*	*	*	*	*	*	*	*	*	*	*	*	*	*	*	*	*	*	*	*v	*v	*	*	*	*	*	*	*	*	*	*	*
==	==	==	==	==	==	==	==	==	==	==	==	==	==	==	==	==	==	==	==	==	==	==	==	==	==	==	==	==	==	==	==	==	==	==
*-	*-	*-	*-	*-	*-	*-	*-	*-	*-	*-	*-	*-	*-	*-	*-	*-	*-	*-	*-	*-	*-	*-	*-	*-	*-	*-	*-	*-	*-	*-	*-	*-	*-	*-
!!!system-decoration: [(s1,s2,s3,s4,s5,s6,s7,s8,s9,s10)][(s11,s12,s13,s14)]s15[(s16,s17,s18,s19)]
!!!ONB: Converted from MusicXML on 2020/01/17
